X:57
T:Mississippi Sawyer
K:D
M:4/4
L:1/8
 fg | "D"a2afa2af | a2aab2a2 | "G"g2geg2ge | g2gga2g2 |
"D" ef2g fefe | defga2a2 | "A7"ABcd egfe | "D"d2ddd2 :|
|: (3ABc | "D"d2f2d2f2 | defga2a2 | "A7"A2cBA2cB | ABcd egfe |
"D"d2f2d2f2 | defga2a2 | "G"ABcd "A"egfe | "D"d2ddd2 :|
